X:1
T:Križevac, LMD
T:Križevac, LMD
T:Solomon W. Straub, 1893
T:Public Domain Courtesy of the Cyber Hymnal™
C:Solomon W. Straub, 1893
Z:Public Domain
Z:Courtesy of the Cyber Hymnal™
%%score ( 1 2 ) ( 3 4 )
L:1/8
Q:1/4=92
M:3/4
K:C
V:1 treble 
V:2 treble 
V:3 bass 
V:4 bass 
V:1
 ([CE][DF]) | [EG][EG] [EG]2 [Ec]2 | [GB][FA] [EG]2 [EG]2 | [DG][DB] [DB]2 [FG]2 | %4
 [EG][Ec] [Ec]2 ([CE][DF]) | [EG][EG] [EG]2 [Ec]2 | [Ge][Gd] !fermata![Fc]2 [Fc]2 | %7
 [^Fd][Fc] [GB]2 D2 | [GB][DA] [DG]2 [DG]2 | [DF]3 [DF] [DF][DF] | [CE]>[FA] [EG]2 [EG]2 | %11
 [DF]3 [DF] [DF][B,D] | [CE]>[FA] [EG]2 ([CE][DF]) |!<(! [EG][EG] [EG]2!<)! [Ec]2 | %14
 [Ge][Gd] !fermata![Fc]2 [Fc]2 | [^DB][DA] [EG]2 [Ec]2 | [DB][Fd] [Ec]2 |] %17
V:2
 x2 | x6 | x6 | x6 | x6 | x6 | x6 | x4 D2 | x6 | x6 | x6 | x6 | x6 | x6 | x6 | x6 | x4 |] %17
V:3
 [C,G,]2 | [C,C][C,C] [C,C]2 [C,G,]2 | [C,C][C,C] [C,C]2 [C,C]2 | [G,B,]G, G,2 [G,B,]2 | %4
 [C,C][C,G,] [C,G,]2 [C,G,]2 | [C,C][C,C] [C,C]2 [C,G,]2 | [C,C][C,_B,] !fermata![F,A,]2 [F,A,]2 | %7
 [D,A,][D,A,] [D,G,]2 [D,B,]2 | [D,D][D,C] [G,,B,]2 [G,B,]2 | [G,B,]3 [G,B,] [G,B,][G,B,] | %10
 [C,C]>[C,C] [C,C]2 [C,C]2 | [G,,B,]3 [G,,B,] [G,,B,][G,,G,] | [C,G,]>[C,C] [C,C]2 [C,G,]2 | %13
 [C,C][C,C] [C,C]2 [C,G,]2 | [C,C][C,_B,] !fermata![F,A,]2 [F,A,]2 | [^F,C][F,C] [G,C]2 G,2 | %16
 [G,,G,][G,,G,] [C,G,]2 |] %17
V:4
 x2 | x6 | x6 | x G, G,2 x2 | x6 | x6 | x6 | x6 | x6 | x6 | x6 | x6 | x6 | x6 | x6 | x4 G,2 | x4 |] %17

